material/.icons/material/credit-card-wireless-off-outline.svg

<svg xmlns="http://www.w3.org/2000/svg" viewBox="0 0 24 24"><path d="M12 2c-2.15 0-4.3.69-6.1 2.08L7.32 5.5c3.13-2.26 7.52-2 10.34.83l1.41-1.41C17.12 2.96 14.56 2 12 2M3.28 4L2 5.27 7.73 11H6a2 2 0 00-2 2v8c0 1.11.89 2 2 2h12c.47 0 .92-.16 1.27-.46l.46.46L21 21.72M12 6c-1.13 0-2.25.31-3.23.94l1.47 1.47c1.49-.73 3.34-.49 4.59.75l1.41-1.41A5.964 5.964 0 0012 6m.82 5l2 2H18v2h-1.18L20 18.18V13a2 2 0 00-2-2M6 13h3.73l2 2H6m0 2h7.73l4 4H6z"/></svg>

<?xml version="1.0" encoding="UTF-8"?><!DOCTYPE svg PUBLIC "-//W3C//DTD SVG 1.1//EN" "http://www.w3.org/Graphics/SVG/1.1/DTD/svg11.dtd"><svg xmlns="http://www.w3.org/2000/svg" xmlns:xlink="http://www.w3.org/1999/xlink" version="1.1" id="mdi-credit-card-wireless-off-outline" width="24" height="24" viewBox="0 0 24 24"><path d="M12 2C9.85 2 7.7 2.69 5.9 4.08L7.32 5.5C10.45 3.24 14.84 3.5 17.66 6.33L19.07 4.92C17.12 2.96 14.56 2 12 2M3.28 4L2 5.27L7.73 11H6C4.89 11 4 11.9 4 13V21C4 22.11 4.89 23 6 23H18C18.47 23 18.92 22.84 19.27 22.54L19.73 23L21 21.72M12 6C10.87 6 9.75 6.31 8.77 6.94L10.24 8.41C11.73 7.68 13.58 7.92 14.83 9.16L16.24 7.75C15.07 6.58 13.54 6 12 6M12.82 11L14.82 13H18V15H16.82L20 18.18V13C20 11.9 19.11 11 18 11M6 13H9.73L11.73 15H6M6 17H13.73L17.73 21H6Z" /></svg>
